src/assets/Imgs/profile/mirrorIcon.svg

<svg fill="none" height="16" viewBox="0 0 16 16" width="16" xmlns="http://www.w3.org/2000/svg"><rect fill="#fff" height="15" rx="3.5" stroke="#0d0c0f" width="15" x=".5" y=".5"/><path d="m4.1875 5.625c0-.125-.0625-.25-.125-.3125l-.9375-1.125v-.1875h2.875l2.25 4.9375 2-4.9375h2.75v.1875l-.8125.75c-.0625.0625-.125.125-.0625.25v5.625c0 .0625 0 .1875.0625.25l.75.75v.1875h-3.9375v-.1875l.8125-.8125c.0625-.0625.0625-.125.0625-.25v-4.5625l-2.25 5.6875h-.25l-2.625-5.6875v3.8125c0 .1875.0625.3125.125.4375l1.0625 1.25v.1875h-2.9375v-.1875l1.0625-1.25c.125-.125.1875-.25.125-.4375z" fill="#0d0c0f"/></svg>

<svg width="16" height="16" viewBox="0 0 16 16" fill="none" xmlns="http://www.w3.org/2000/svg">
<g id="medium">
<rect id="Rectangle 2182" x="0.5" y="0.5" width="15" height="15" rx="3.5" fill="white" stroke="#0D0C0F"/>
<path id="medium_2" d="M4.1875 5.625C4.1875 5.5 4.125 5.375 4.0625 5.3125L3.125 4.1875V4H6L8.25 8.9375L10.25 4H13V4.1875L12.1875 4.9375C12.125 5 12.0625 5.0625 12.125 5.1875V10.8125C12.125 10.875 12.125 11 12.1875 11.0625L12.9375 11.8125V12H9V11.8125L9.8125 11C9.875 10.9375 9.875 10.875 9.875 10.75V6.1875L7.625 11.875H7.375L4.75 6.1875V10C4.75 10.1875 4.8125 10.3125 4.875 10.4375L5.9375 11.6875V11.875H3V11.6875L4.0625 10.4375C4.1875 10.3125 4.25 10.1875 4.1875 10V5.625Z" fill="#0D0C0F"/>
</g>
</svg>
